outputs/icons/action/build_sharp.svg

<svg width="1200" height="1200" viewBox="0 0 1200 1200" fill="none" xmlns="http://www.w3.org/2000/svg"><g clip-path="url(#clip0_117_802)"><path d="M604.49 145.498C503.99 44.998 353.488 24.498 232.488 83.498L449.488 300.498L299.488 450.498L82.488 233.498C23.988 354.998 44.488 504.5 144.988 605C237.988 698 373.988 722.5 489.488 679L980.49 1170L1165.99 984.5L676.99 494.998C722.99 377.998 698.99 239.998 604.49 145.498Z" fill="#1D1E23"/></g><defs><clipPath id="clip0_117_802"><path width="24" fill="white" d="M0 0H1200V1200H0V0z"/></clipPath></defs></svg>

<svg xmlns="http://www.w3.org/2000/svg" width="1200" height="1200" fill="none"><g clip-path="url(#a)"><path fill="#000" d="M604.5 145.498c-100.5-100.5-251-121-372-62l217 217-150 150-217-217C24 354.998 44.5 504.5 145 605c93 93 229 117.5 344.5 74l491 491L1166 984.5 677 494.998c46-117 22-255-72.5-349.5"/></g><defs><clipPath id="a"><path fill="#fff" d="M0 0h1200v1200H0z"/></clipPath></defs></svg>
